actions/16/jockey-proprietary.svg

<?xml version="1.0" encoding="UTF-8" standalone="no"?>
<!-- Created with Inkscape (http://www.inkscape.org/) -->

<svg
   xmlns:dc="http://purl.org/dc/elements/1.1/"
   xmlns:cc="http://creativecommons.org/ns#"
   xmlns:rdf="http://www.w3.org/1999/02/22-rdf-syntax-ns#"
   xmlns:svg="http://www.w3.org/2000/svg"
   xmlns="http://www.w3.org/2000/svg"
   xmlns:sodipodi="http://sodipodi.sourceforge.net/DTD/sodipodi-0.dtd"
   xmlns:inkscape="http://www.inkscape.org/namespaces/inkscape"
   version="1.0"
   width="16"
   height="16"
   id="svg2"
   inkscape:version="0.48.3.1 r9886"
   sodipodi:docname="jockey-proprietary.svg">
  <sodipodi:namedview
     pagecolor="#ffffff"
     bordercolor="#666666"
     borderopacity="1"
     objecttolerance="10"
     gridtolerance="10"
     guidetolerance="10"
     inkscape:pageopacity="0"
     inkscape:pageshadow="2"
     inkscape:window-width="1920"
     inkscape:window-height="1032"
     id="namedview32"
     showgrid="true"
     inkscape:zoom="45.254835"
     inkscape:cx="10.193114"
     inkscape:cy="8.023446"
     inkscape:window-x="-7"
     inkscape:window-y="25"
     inkscape:window-maximized="1"
     inkscape:current-layer="svg2"
     inkscape:snap-bbox="true"
     inkscape:bbox-paths="true"
     inkscape:bbox-nodes="true"
     inkscape:snap-bbox-edge-midpoints="true"
     inkscape:snap-bbox-midpoints="true"
     inkscape:object-paths="true"
     inkscape:snap-intersection-paths="true"
     inkscape:object-nodes="true"
     inkscape:snap-smooth-nodes="true"
     inkscape:snap-midpoints="true"
     inkscape:snap-object-midpoints="true"
     inkscape:snap-center="true"
     fit-margin-top="0"
     fit-margin-left="0"
     fit-margin-right="0"
     fit-margin-bottom="0">
    <inkscape:grid
       type="xygrid"
       id="grid3218"
       empspacing="5"
       visible="true"
       enabled="true"
       snapvisiblegridlinesonly="true"
       originx="-11px"
       originy="18px" />
  </sodipodi:namedview>
  <metadata
     id="metadata11">
    <rdf:RDF>
      <cc:Work
         rdf:about="">
        <dc:format>image/svg+xml</dc:format>
        <dc:type
           rdf:resource="http://purl.org/dc/dcmitype/StillImage" />
        <dc:title />
      </cc:Work>
    </rdf:RDF>
  </metadata>
  <defs
     id="defs4" />
  <path
     id="path2985"
     d="M 8,2 C 5.790861,2 4,3.790861 4,6 L 6,6 C 6,4.8954305 6.8954305,4 8,4 c 1.1045695,0 2,0.8954305 2,2 l 2,0 C 12,3.790861 10.209139,2 8,2 z M 3,7 3,14 13,14 13,7 3,7 z"
     style="color:#000000;fill:#EDEFF3;fill-opacity:0.75;fill-rule:nonzero;stroke:none;stroke-width:1.20000005;marker:none;visibility:visible;display:inline;overflow:visible;enable-background:accumulate"
     inkscape:connector-curvature="0" />
  <path
     style="font-size:medium;font-style:normal;font-variant:normal;font-weight:normal;font-stretch:normal;text-indent:0;text-align:start;text-decoration:none;line-height:normal;letter-spacing:normal;word-spacing:normal;text-transform:none;direction:ltr;block-progression:tb;writing-mode:lr-tb;text-anchor:start;baseline-shift:baseline;color:#000000;fill:#485462;fill-opacity:0.7;fill-rule:nonzero;stroke:none;stroke-width:2;marker:none;visibility:visible;display:inline;overflow:visible;enable-background:accumulate;font-family:Sans;-inkscape-font-specification:Sans"
     d="M 8 1 C 4.4730246 1 3.3031144 2.7272522 3.0625 5 L 4.15625 5 C 4.6009217 3.2756909 6.1368122 2 8 2 C 9.8631878 2 11.399078 3.2756909 11.84375 5 L 12.9375 5 C 12.696886 2.7272522 11.526975 1 8 1 z M 2 6 L 2 7 L 2 14 L 2 15 L 3 15 L 13 15 L 14 15 L 14 14 L 14 7 L 14 6 L 13 6 L 12 6 L 10 6 L 6 6 L 4 6 L 3 6 L 2 6 z M 3 7 L 13 7 L 13 14 L 3 14 L 3 7 z "
     id="rect2983" />
</svg>

<?xml version="1.0" encoding="UTF-8"?>
<svg id="a" width="16" height="16" version="1.0" xmlns="http://www.w3.org/2000/svg" xmlns:cc="http://creativecommons.org/ns#" xmlns:dc="http://purl.org/dc/elements/1.1/" xmlns:rdf="http://www.w3.org/1999/02/22-rdf-syntax-ns#">
	<metadata id="e">
		<rdf:RDF>
			<cc:Work rdf:about="">
				<dc:format>image/svg+xml</dc:format>
				<dc:type rdf:resource="http://purl.org/dc/dcmitype/StillImage"/>
				<dc:title/>
			</cc:Work>
		</rdf:RDF>
	</metadata>
	<defs>
		<style id="current-color-scheme" type="text/css">.ColorScheme-Text {color:#090d11;}.ColorScheme-Background{color:#ffffff;}</style>
	</defs>
	<g>
		<path id="b" d="m8 2c-2.2091 0-4 1.7909-4 4h2c0-1.1046 0.89543-2 2-2s2 0.89543 2 2h2c0-2.2091-1.7909-4-4-4zm-5 5v7h10v-7h-10z" style="fill-opacity:.75;fill:currentColor" class="ColorScheme-Text"/>
		<path id="d" d="m8 1c-3.527 0-4.6969 1.7273-4.9375 4h1.0938c0.44467-1.7243 1.9806-3 3.8438-3s3.3991 1.2757 3.8438 3h1.0938c-0.24061-2.2727-1.4105-4-4.9375-4zm-6 5v1 7 1h1 10 1v-1-7-1h-1-1-2-4-2-1-1zm1 1h10v7h-10v-7z" style="fill-opacity:.5;fill:currentColor" class="ColorScheme-Background"/>
	</g>
</svg>
